X:1
T:Eternal source of every joy
T:Eternal source of every joy - Whitnash (William Perry)
C:William Perry
Z:p109, Original Sacred Melodies,
Z:London: [c1820-1829]
%%score [ 1 2 3 4 ]
L:1/8
M:4/4
K:Bb
V:1 treble nm="[S]"
V:2 treble nm="[A]"
V:3 treble-8 transpose=-12 nm="[T]"
V:4 bass nm="[B]"
V:1
"^Moderato" D2 | F4 G4 | F4 B4 | (B2 d2) (c2 A2) | B6 F2 | (G2 B2) (A2 F2) | (B2 d2) (c2 B2) | %7
w: Thy|hand in|au- tumn|rich- * ly _|pours Through|all _ our _|coasts _ re- *|
w: E-|ter- nal|source of|ev- * ’ry _|joy! Well|may _ thy _|praise _ our _|
w: The|flow’- ry|spring, at|thy _ com- *|mand, Em-|balms _ the _|sky _ and _|
 A4 G4 | F6 F2 | B2 B2 c2 c2 | d2 c2 B2!p! A2 | G2 ^F2 G2 A2 | B2 A2 G2!f! F2 | B3 A (GA)(BG) | %14
w: dun- dant|stores; And|win- ters, sof- ten’d|by thy care, No|more a face of|hor- ror wear, and|win- ters, sof- * ten’d _|
w: lips em-|ploy, While|in thy tem- ple|we ap- pear To|hail thee sov- ’reign|of the year, while|in thy tem- * ple _|
w: paints the|land; The|sum- mer rays with|vi- gour shine, To|raise the corn, and|cheer the vine, the|sum- mer rays _ with _|
 c3 B (AB)(cA) | d3 c (Bc)(dB) | e3 d (cd)(ec) | (f3 e de)(fd) | (g2 fe d2) c2 | B4 A4 | B6 |] %21
w: by thy care, _ no _|more a face _ of _|hor- ror wear, _ no _|more _ _ _ a _|face _ _ _ of|hor- ror|wear.|
w: we ap- pear _ to _|hail thee sov- * ’reign _|of the year, _ to _|hail _ _ _ thee _|sov- * * * ’reign|of the|year.|
w: vi- gour shine, _ to _|raise the corn, _ and _|cheer the vine, _ to _|raise _ _ _ the _|corn, _ _ _ and|cheer the|vine.|
V:2
 B,2 | B,4 B,4 | B,4 D4 | (D2 F2) (E2 C2) | D6 z2 | z4 z2 F2 | F2 F2 F2 F2 | F4 =E4 | F6 A,2 | %9
w: Thy|hand in|au- tumn|rich- * ly _|pours|Through|all our coasts re-|dun- dant|stores; And|
w: E-|ter- nal|source of|ev- * ’ry _|joy!|Well|may thy praise our|lips em-|ploy, While|
w: The|flow’- ry|spring, at|thy _ com- *|mand,|Em-|balms the sky and|paints the|land; The|
 B,2 D2 C2 F2 | F2 E2 D2!p! C2 | B,2 A,2 B,2 C2 | D2 C2 B,2!f! C2 | D2 B,2 E2 E2 | =E2 C2 F2 F2 | %15
w: win- ters, sof- ten’d|by thy care, No|more a face of|hor- ror wear, and|win- ters, sof- ten’d|by thy care, no|
w: in thy tem- ple|we ap- pear To|hail thee sov- ’reign|of the year, while|in thy tem- ple|we ap- pear to|
w: sum- mer rays with|vi- gour shine, To|raise the corn, and|cheer the vine, the|sum- mer rays with|vi- gour shine, to|
 ^F2 D2 G2 G2 | G2 C2 C2 C2 | (B,2 F4) F2 | (E2 F4) G2 | F6 E2 | D6 |] %21
w: more a face of|hor- ror wear, no|more _ a|face _ of|hor- ror|wear.|
w: hail thee sov- ’reign|of the year, to|hail _ thee|sov- * ’reign|of the|year.|
w: raise the corn, and|cheer the vine, to|raise _ the|corn, _ and|cheer the|vine.|
V:3
 F2 | F4 E4 | F4 F4 | F4 F4 | F6 z2 | z4 z2 c2 | B2 B2 F2 d2 | c6 B2 | A6 F2 | F2 F2 F2 A2 | %10
w: Thy|hand in|au- tumn|rich- ly|pours|Through|all our coasts re-|dun- dant|stores; And|win- ters, sof- ten’d|
w: E-|ter- nal|source of|ev- ’ry|joy!|Well|may thy praise our|lips em-|ploy, While|in thy tem- ple|
w: The|flow’- ry|spring, at|thy com-|mand,|Em-|balms the sky and|paints the|land; The|sum- mer rays with|
 B2 A2 B2 z2 | z8 | z4 z2!f! F2 | F2 F2 G2 G2 | G2 G2 A2 A2 | A2 A2 B2 B2 | B2 B2 A2 (GA) | %17
w: by thy care,||and|win- ters, sof- ten’d|by thy care, no|more a face of|hor- ror wear, no _|
w: we ap- pear,||while|in thy tem- ple|we ap- pear to|hail thee sov- ’reign|of the year, to _|
w: vi- gour shine,||the|sum- mer rays with|vi- gour shine, to|raise the corn, and|cheer the vine, to _|
 (B2 A2 B2) B2 | (B2 c2 d2) e2 | d4 c4 | B6 |] %21
w: more _ _ a|face _ _ of|hor- ror|wear.|
w: hail _ _ thee|sov- * * ’reign|of the|year.|
w: raise _ _ the|corn, _ _ and|cheer the|vine.|
V:4
 B,,2 | D,4 E,4 | D,4 B,,4 | F,4 F,4 | B,,6 D,2 | (E,2 G,2) (F,2 E,2) | (D,2 B,,2) (A,,2 B,,2) | %7
w: Thy|hand in|au- tumn|rich- ly|pours Through|all _ our _|coasts _ re- *|
w: E-|ter- nal|source of|ev- ’ry|joy! Well|may _ thy _|praise _ our _|
w: The|flow’- ry|spring, at|thy com-|mand, Em-|balms _ the _|sky _ and _|
 C,4 C,4 | F,6 E,2 | D,2 B,,2 A,,2 F,,2 | B,,2 F,2 B,2 z2 | z8 | z4 z2!f! F,2 | B,,2 D,2 E,2 D,2 | %14
w: dun- dant|stores; And|win- ters, sof- ten’d|by thy care,||and|win- ters, sof- ten’d|
w: lips em-|ploy, While|in thy tem- ple|we ap- pear,||while|in thy tem- ple|
w: paints the|land; The|sum- mer rays with|vi- gour shine,||the|sum- mer rays with|
 C,2 =E,2 F,2 _E,2 | D,2 ^F,2 G,2 =F,2 | %16
w: by thy care, no|more a face of|
w: we ap- pear to|hail thee sov- ’reign|
w: vi- gour shine, to|raise the corn, and|
"^Notes: The alto part is printed in the source in the treble clef an octave above sounding pitch. Keyboard accompanimentgiven in the source has been omitted from this edition, and verses after the first have been underlaid editorially.This edition has been transposed down by a tone from the original key of C." E,2 =E,2 F,2 _E,2 | %17
w: hor- ror wear, no|
w: of the year, to|
w: cheer the vine, to|
 (D,2 F,2 B,2) _A,2 | (G,2 A,2 B,2) E,2 | F,4 F,4 | B,,6 |] %21
w: more _ _ a|face _ _ of|hor- ror|wear.|
w: hail _ _ thee|sov- * * ’reign|of the|year.|
w: raise _ _ the|corn, _ _ and|cheer the|vine.|

